!!!OTL: 646. Gaense-Cantate.
!!!ARE: Europa, Mitteleuropa, Deutschland, Schlesien
!!!SCT: K0646
!!!TXL: @@DE
!!!YEM: Copyright 1995, estate of Helmut Schaffrath.
**kern	**text
*clefG2	*
*M2/4	*
*k[f#]	*
*G:	*
{8d	Was
=1	=1
12g	ha-
12g	-ben
12g	wir
12g	Gän-
12g	-ſe
12g	für
=2	=2
8g	Klei-
8e	-dung
4d}	an?
=3	=3
{4e	Gi-
4f#	-ga-
=4	=4
4g	-gack!
8r}	.
{16gL	Wir
16aJ	.
=5	=5
8b	ge-
8b	-hen
8b	bar-
8b	-fuß
=6	=6
8cc	al-
8cc	-le-
8cc}	-ʒeit
{16ccL	in
16bJ	.
=7	=7
8a	ei-
8a	-nem
8a	wei-
8a	-ßen
=8	=8
8dd	Fe-
8dd	-der-
4dd}	-kleid.
=9	=9
{4g	Gi-
4a	-ga-
=10	=10
4b/	-gack!
8r}	.
{8a	Wir
=11	=11
16gL	ha-
16f#J	.
16g	-ben
16a	nur
8b/	ei-
8a	-nen
=12	=12
4g	Frack.
8r}	.
==	==
!!!AGN: Kinder -, Tier - Lied
!!!ONB: ESAC (Essen Associative Code) Database: KINDER
!!!AMT: simple duple
!!!AIN: vox
!!!EED: Helmut Schaffrath
!!!EEV: 1.0
!!!GTL: VI. Das Kind im Verkehr mit der Natur. A. Verkehr mit der Thierwelt. (Grussliedchen an die Thiere.)
!!Schles. Volksweise.
!!@@COMMENT:"Volksthümliches Kinderlied in vielen Schulbüchern ſeit 50 Jahren. Hierher gehört auch der Reim: "Gickes, gackes, Eiermuß" 119."
!!@@END:
!!!URL-scan: https://archive.org/details/DeutschesKinderliedUndKinderspiel/page/140/mode/1up
!!!ENC: Anna Maria Matuszewska
!!!EEV: 2024/30/08
*-	*-
